src/assets/svg/data-structured.svg

<svg xmlns="http://www.w3.org/2000/svg" viewBox="0 0 32 32">
  <circle cx="9" cy="7" r="1"/>
  <path d="M27 22.14V18a2 2 0 0 0-2-2h-8v-4h9a2 2 0 0 0 2-2V4a2 2 0 0 0-2-2H6a2 2 0 0 0-2 2v6a2 2 0 0 0 2 2h9v4H7a2 2 0 0 0-2 2v4.14a4 4 0 1 0 2 0V18h8v4h-3v8h8v-8h-3v-4h8v4.14a4 4 0 1 0 2 0M8 26a2 2 0 1 1-2-2 2 2 0 0 1 2 2m10-2v4h-4v-4ZM6 10V4h20v6Zm20 18a2 2 0 1 1 2-2 2 2 0 0 1-2 2"/>
  <path fill="none" d="M0 0h32v32H0z" data-name="Transparent Rectangle"/>
</svg>

<svg id="icon" xmlns="http://www.w3.org/2000/svg" viewBox="0 0 32 32"><defs><style>.cls-1{fill:none;}</style></defs><title>data-structured</title><circle cx="9" cy="7" r="1"/><path d="M27,22.14V18a2,2,0,0,0-2-2H17V12h9a2,2,0,0,0,2-2V4a2,2,0,0,0-2-2H6A2,2,0,0,0,4,4v6a2,2,0,0,0,2,2h9v4H7a2,2,0,0,0-2,2v4.14a4,4,0,1,0,2,0V18h8v4H12v8h8V22H17V18h8v4.14a4,4,0,1,0,2,0ZM8,26a2,2,0,1,1-2-2A2,2,0,0,1,8,26Zm10-2v4H14V24ZM6,10V4H26v6ZM26,28a2,2,0,1,1,2-2A2,2,0,0,1,26,28Z" transform="translate(0)"/><rect id="_Transparent_Rectangle_" data-name="&lt;Transparent Rectangle&gt;" class="cls-1" width="32" height="32"/></svg>
